X: 20171
Q: "And.te"
M: 2/4
L: 1/8
K: C
c2 c>e | d3 B | cG (AB/c/) | (AG) (FE) |\
(EG) (Gc) | c3 d | (ef/g/) (fe) | {e}d3 z |\
~c2 c>e | {e}d3 B | cG (AB/c/) | (AG) (FE) |
(EG) (Gc) | c2 g>f | e2 Td2{cd}y | {d}c3 :|\
e2 |\
eceg | (ec) zd | dB dg | (dB) ze |\
e2 ec | d2 dB | c>d (e/d/)(c/B/) | {B}A2 zc |


